X:1
T:Bearing His Cross for Me
T:Bearing His Cross for Me
T:Robert Harkness
T:Robert Harkness, 1921
T:Public Domain Courtesy of the Cyber Hymnal™
C:Robert Harkness
Z:Public Domain
Z:Courtesy of the Cyber Hymnal™
%%score ( 1 2 ) ( 3 4 )
L:1/8
Q:1/4=135
M:6/4
K:G
V:1 treble 
V:2 treble 
V:3 bass 
V:4 bass 
V:1
 D2 E2 F2 A2 G2 E2 | [CF]4 [B,G]2 [CA]6 | [B,B]2 [CF]2 [DG]2 [CE]4 [CG]2 | [B,D]6- [B,D]4 z2 | %4
w: 1.~I see my Sav- ior with|thorn crowned head,|Bear- ing His cross for|me; *|
w: 2.~I see Him pass thro’ the|ci- ty gate,|Bear- ing His cross for|me; *|
w: 3.~I see Him bur- dened with|this world’s sin,|Bear- ing His cross for|me; *|
 D2 E2 F2 c2 B2 A2 | G4 [FA]2 B6 | A2 G2 F2 F4 E2 | [CA]6- [CA]4 z2 || %8
w: Thorn pierced His brow, as by|sol- diers led,|Bear- ing His cross for|me. *|
w: On midst the taunts and the|peo- ple’s hate,|Bear- ing His cross for|me. *|
w: Will- ing to suf- fer, all|hearts to win,|Bear- ing His cross for|me. *|
"^Refrain" [B,D]2 [B,E]2 [B,F]2 [B,A]4 [B,G]2 | c12 | [Fc]2 [FB]2 [FA]2 [^E^G]4 [FA]2 | d12 | %12
w: ||||
w: Bear- ing His cross for|me,|Bear- ing His cross for|me;|
w: ||||
 [^Gd]3 [Ge] [Gd]2 [GB]2 [Gc]2 [GB]2 | [EA]2 E2 [EA]2 [Ec]6 | [GB]2 [DA]2 [DG]2 [CE]4 [CF]2 | %15
w: |||
w: Won- der- ful Sav- ior, what|an- guish He bore,|Bear- ing His cross for|
w: |||
 G6- [B,G]4 z2 |] %16
w: |
w: me. *|
w: |
V:2
 B,6 B,6 | x12 | x12 | x12 | C6 F6 | G4 (G2 F2 =F2) x2 | D6 ^C6 | x12 || x12 | (D4 F2 F6) | x12 | %11
 (G4 F2 G6) | x12 | x2 E2 x8 | x12 | B,4 C2 x6 |] %16
V:3
 [G,,D,]6 [G,,D,]6 | [A,,D,]4 [D,G,]2 [D,F,]6 | [G,,G,]2 [A,,D,]2 [B,,G,]2 [C,G,]4 [E,G,]2 | %3
 (G,6- [G,,G,]4) z2 | F,2 G,2 A,2 E2 D2 [^D,C]2 | [E,B,]4 [D,D]2 D6 | F,2 B,2 A,2 A,4 G,2 | %7
 [D,F,]6- [D,F,]4 z2 || [G,,D,]2 [G,,D,]2 [G,,D,]2 [G,,D,]4 [G,,D,]2 | ([A,,F,]4 [D,A,]2 [D,A,]6) | %10
 [D,F]2 [D,D]2 [D,C]2 [D,B,]4 [D,C]2 | ([B,D]4 [A,C]2 B,6) | %12
 [E,B,]3 [E,B,] [E,B,]2 [E,D]2 [E,E]2 [E,D]2 | [A,C]2 [A,C]2 [A,C]2 E6 | %14
 [D,D]2 [D,C]2 [D,B,]2 [D,B,]4 [D,A,]2 | (G,2 F,2 [G,,E,]2 [G,,D,]4) z2 |] %16
V:4
 x12 | x12 | x12 | G,6 x6 | ^D,6 D,4 x2 | x6 (G,4 ^G,,2) | A,,6 A,,6 | x12 || x12 | x12 | x12 | %11
 x6 (G,2 F,2 =F,2) | x12 | x6 (A,4 A,,2) | x12 | G,,4 x8 |] %16

